app/dist/common/images/wd-40.svg

<svg height="18" width="18" xmlns="http://www.w3.org/2000/svg"><path d="m0 0h18v18h-18z" fill="#123c8a"/><path d="m16 5h-14v6.738l.015.014c1.082 1.083 3.245 3.25 6.985 3.248 3.755-.001 6.085-2.165 7-3.262z" fill="#fdee50"/><path d="m10.101 9.664 1.11-2.664h1.093v2.664h.275v-1.928c.037-.243.197-.732.966-.736s.945.49.961.736v2.572c-.036.23-.24.688-.961.688-.63 0-.91-.437-.966-.666h-.275v.666h-1.102v-.666h-1.1v-.666zm-.101-.664h-1v.996h1z" fill="#123c8a"/><path d="m13.406 8.082c0-.073.092-.086.137-.084.11 0 .138.056.138.084v1.85c-.009.02-.047.06-.128.064a.17.17 0 0 1 -.147-.064zm-1.928 1.47v-.856l-.275.856z" fill="#fdee50"/><path d="m4.045 11-.551-4h.826l.275 1.142.138-1.142h.826l.137 1.142.227-1.142h2.248c.437 0 .554.424.554.658v2.684c0 .508-.37.65-.554.658h-1.649v-2.67l-.275 2.67h-.827l-.275-1.144-.275 1.144z" fill="#123c8a"/><path d="m7.486 9.996v-1.998c.116 0 .275.119.275.17v1.678c0 .067-.212.147-.275.15z" fill="#fdee50"/></svg>

<!-- by TradingView --><svg width="18" height="18" xmlns="http://www.w3.org/2000/svg"><path fill="#123C8A" d="M0 0h18v18H0z"/><path d="M16 5H2v6.738l.015.014C3.097 12.835 5.26 15.002 9 15c3.755-.001 6.085-2.165 7-3.262V5z" fill="#FDEE50"/><path d="M10.101 9.664L11.211 7h1.093v2.664h.275V7.736c.037-.243.197-.732.966-.736.769-.004.945.49.961.736v2.572c-.036.23-.24.688-.961.688-.63 0-.91-.437-.966-.666h-.275v.666h-1.102v-.666h-1.1v-.666zM10 9H9v.996h1V9z" fill="#123C8A"/><path d="M13.406 8.082c0-.073.092-.086.137-.084.11 0 .138.056.138.084v1.85c-.009.02-.047.06-.128.064a.17.17 0 01-.147-.064v-1.85zM11.478 9.552v-.856l-.275.856h.275z" fill="#FDEE50"/><path d="M4.045 11l-.551-4h.826l.275 1.142L4.733 7h.826l.137 1.142L5.923 7h2.248c.437 0 .554.424.554.658v2.684c0 .508-.37.65-.554.658H6.522V8.33L6.247 11H5.42l-.275-1.144L4.87 11h-.825z" fill="#123C8A"/><path d="M7.486 9.996V7.998c.116 0 .275.119.275.17v1.678c0 .067-.212.147-.275.15z" fill="#FDEE50"/></svg>
